X:1
T:Danza Rusa (Trepak)
T:Piano-Violín-Guitarra PI
T:Danza Rusa
T:Trepak
T:Tchaikovsky
T:Copyright © 
Z:Copyright ©
L:1/8
Q:1/4=160
M:2/4
K:G
V:1 treble nm="Piano-Violín-Guitarra PI" snm="Pno."
V:1
|:"^A" D2 D2 | E2 E2 | G2 G2 | G2 G2 | F2 E2 | D2 F2 | G2 E2 | F2 F2 |"^B" D2 D2 | E2 E2 | G2 G2 | %11
w: re re|mi mi|sol sol|sol sol|fa# mi|re fa#|sol mi|fa# fa#|re re|mi mi|sol sol|
 G2 G2 | F2 E2 | D2 F2 | G2 E2 | F2 F2 :|[K:D]"^C" F2 F2 | G2 G2 | A2 A2 | A2 D2 | D2 A2 | G2 F2 | %22
w: sol sol|fa# mi|re fa#|sol mi|fa# fa#|fa# fa#|sol sol|la la|la re|re la|sol fa#|
 E2 D2 | D2 E2 |"^D" F2 F2 | G2 G2 | A2 A2 | A2 D2 | D2 A2 | G2 F2 | E2 E2 | E2 D2 |"^E" z2 A2 | %33
w: mi re|re mi|fa# fa#|sol sol|la la|la re|re la|sol fa#|mi mi|mi re|la|
 A2 D2 | z2 A2 | A2 D2 | z2 G2 | z2 G2 | z2 z2 | z2 z2 ||[K:G]"^F" D2 D2 | E2 E2 | G2 G2 | G2 G2 | %44
w: la re|la|la re|sol|sol|||re re|mi mi|sol sol|sol sol|
 F2 E2 | D2 F2 | G2 E2 | F2 F2 |"^G" D2 D2 | E2 E2 | G2 G2 | G2 G2 | F2 E2 | D2 F2 | G2 F2 | %55
w: fa# mi|re fa#|sol mi|fa# fa#|re re|mi mi|sol sol|sol sol|fa# mi|re fa#|sol fa#|
 E2 G2 |"^H" F2 E2 | D2 F2 | G2 F2 | E2 G2 | F2 A2 | G2 E2 | F2 A2 | G2 E2 | F2 E2 | F2 E2 | %66
w: mi sol|fa# mi|re fa#|sol fa#|mi sol|fa# la|sol mi|fa# la|sol mi|fa# mi|fa# mi|
 F2 E2 | F2 D2 |] %68
w: fa# mi|fa# re|

